icons/mic-blue.svg

<svg width="36" height="36" viewBox="0 0 36 36" fill="none" xmlns="http://www.w3.org/2000/svg">
<path fill-rule="evenodd" clip-rule="evenodd" d="M17.75 21.448C20.2055 21.448 22.1875 19.4659 22.1875 17.0105V8.1355C22.1875 5.68008 20.2055 3.698 17.75 3.698C15.2946 3.698 13.3125 5.68008 13.3125 8.1355V17.0105C13.3125 19.4659 15.2946 21.448 17.75 21.448ZM16.2709 8.1355C16.2709 7.32196 16.9365 6.65633 17.75 6.65633C18.5636 6.65633 19.2292 7.32196 19.2292 8.1355V17.0105C19.2292 17.824 18.5636 18.4897 17.75 18.4897C16.9365 18.4897 16.2709 17.824 16.2709 17.0105V8.1355ZM17.75 24.4063C21.8325 24.4063 25.1459 21.093 25.1459 17.0105H28.1042C28.1042 22.232 24.2436 26.5215 19.2292 27.2463V31.8022H16.2709V27.2463C11.2565 26.5215 7.39587 22.232 7.39587 17.0105H10.3542C10.3542 21.093 13.6675 24.4063 17.75 24.4063Z" fill="#3366CC"/>
</svg>

<svg width="36" height="36" fill="none" xmlns="http://www.w3.org/2000/svg"><path fill-rule="evenodd" clip-rule="evenodd" d="M17.75 21.448a4.432 4.432 0 0 0 4.438-4.438V8.136a4.432 4.432 0 0 0-4.438-4.437 4.432 4.432 0 0 0-4.438 4.438v8.875a4.432 4.432 0 0 0 4.438 4.437zM16.27 8.135c0-.813.666-1.479 1.48-1.479s1.48.666 1.48 1.48v8.875c0 .813-.666 1.479-1.48 1.479s-1.48-.666-1.48-1.48V8.136zm1.48 16.271a7.399 7.399 0 0 0 7.396-7.395h2.958c0 5.221-3.86 9.51-8.875 10.235v4.556h-2.958v-4.556c-5.014-.724-8.875-5.014-8.875-10.235h2.958a7.398 7.398 0 0 0 7.396 7.395z" fill="#36C"/></svg>
